logos/wise.svg

<svg width="518" height="118" viewBox="0 0 518 118" fill="none" xmlns="http://www.w3.org/2000/svg">
<path d="M517.1 51.7999C517.1 21.7999 496.2 0.699951 466.9 0.699951C429.6 0.699951 404.6 27.8 404.6 66.5C404.6 96.7 425.7 117.6 455.5 117.6C482.6 117.6 502.8 104.5 511.1 83.6H481C477 90.1 468.5 94.2 458.1 94.2C442.1 94.2 432.1 83.6 431.2 68.6H515.4C516.5 62.9 517.1 57.9999 517.1 51.7999ZM433.5 48.2999C436.2 34.4999 449.6 23.5 465.8 23.5C479.8 23.5 490.4 33.6999 490.4 48.2999H433.5Z" fill="#2E4369"/>
<path d="M323.7 114.9L329.1 86.1C345.6 89.4 348.1 80.1 352.4 57.7L354.5 46.6C360.5 15.3 372.6 -0.300037 407.2 3.89996L401.8 32.7C385.3 29.4 382.4 41.9 378.7 61.3L376.6 72.4C370.6 104.1 358.1 119.1 323.7 114.9Z" fill="#2E4369"/>
<path d="M283.3 115L303.7 3.3999H330.6L310.3 115H283.3Z" fill="#2E4369"/>
<path d="M129.2 3.3999H155.3L163.8 84.0999L198 3.3999H223.9L233 84.8999L266 3.3999H292L244.7 115H215.1L205.5 38.1999L172.8 115H144.2L129.2 3.3999Z" fill="#2E4369"/>
<path d="M31.7 32.9999L0.699951 62.5999H53.4L58.9 49.6999H32.2L48.9 32.9999L39.2 16.2999H84.5L42.7 115H58.4L105.7 3.3999H14.3L31.7 32.9999Z" fill="#00B9FF"/>
</svg>

<svg fill="none" viewBox="0 0 518 118" xmlns="http://www.w3.org/2000/svg">
  <path fill="#2E4369" d="M517.1 51.8c0-30-20.9-51.1-50.2-51.1-37.3 0-62.3 27.1-62.3 65.8 0 30.2 21.1 51.1 50.9 51.1 27.1 0 47.3-13.1 55.6-34H481c-4 6.5-12.5 10.6-22.9 10.6-16 0-26-10.6-26.9-25.6h84.2c1.1-5.7 1.7-10.6 1.7-16.8Zm-83.6-3.5c2.7-13.8 16.1-24.8 32.3-24.8 14 0 24.6 10.2 24.6 24.8h-56.9Z"/>
  <path fill="#2E4369" d="m323.7 114.9 5.4-28.8c16.5 3.3 19-6 23.3-28.4l2.1-11.1c6-31.3 18.1-46.9 52.7-42.7l-5.4 28.8c-16.5-3.3-19.4 9.2-23.1 28.6l-2.1 11.1c-6 31.7-18.5 46.7-52.9 42.5Z"/>
  <path fill="#2E4369" d="M283.3 115 303.7 3.4h26.9L310.3 115h-27Z"/>
  <path fill="#2E4369" d="M129.2 3.4h26.1l8.5 80.7L198 3.4h25.9l9.1 81.5 33-81.5h26L244.7 115h-29.6l-9.6-76.8-32.7 76.8h-28.6l-15-111.6Z"/>
  <path fill="#00B9FF" d="M31.7 33 .7 62.6h52.7l5.5-12.9H32.2L48.9 33l-9.7-16.7h45.3L42.7 115h15.7L105.7 3.4H14.3L31.7 33Z"/>
</svg>
